**kern	**kern	**kern	**kern
*staff3	*staff4	*staff1	*staff2
*clefF4	*clefF4	*clefG2	*clefG2
*k[f#c#]	*k[f#c#]	*k[f#c#]	*k[f#c#]
*M2/4	*M2/4	*M2/4	*M2/4
*D:	*D:	*D:	*D:
=-	=-	=-	=-
*	*	*	*clefG2
4A	[2D	4ff#	4a
4c#	.	4ee	4g
=309	=309	=309	=309
4d	2D]	4.dd	4f#
4F# 4A 4c	.	.	4d# 4a
.	.	8cc	.
=310	=310	=310	=310
4G 4B	[2D	4b	4e 4g
4E 4G	.	(4b	(4c# 4g
=311	=311	=311	=311
4F# 4A	2D]	4.a)	4d)
4A	.	.	4r
.	.	8g	.
=312	=312	=312	=312
4A 4c	[2D	4d# 4f#	2r
(4A 4c	.	(4d# 4f#	.
=313	=313	=313	=313
4G) 4B	4D]	4e) 4g	2r
(4E 4B-	[4D	(4c# 4g	.
=314	=314	=314	=314
4F#) 4A	4D]	4d) 4f#	2r
4r	(4DD 4D	(4G# 4B 4f#	.
=315	=315	=315	=315
2r	2AAA;) 2AA;	2A;) 2c#; 2e;	2r
=316:|!|:	=316:|!|:	=316:|!|:	=316:|!|:
*-	*-	*-	*-
